X:1
T:Can there be harm in kissing?
T:Can there be harm in kissing?
T:Joseph A. Geschwend
%%score [ 1 2 3 4 ]
L:1/8
Q:1/4=70
M:6/8
K:C
V:1 treble nm="Soprano"
V:2 treble nm="Alto"
V:3 treble-8 nm="Tenor"
V:4 bass nm="Bass"
V:1
 G | (Gc) d e2 G | (Gc) d e2 e | (ed) ^c (df) e | (c2 B/A/ G) z G | (Gc) d e2 G | (Gc) d e2 e/-e/ | %7
w: 1.The|wa- * ters kiss the|peb- * bly shore; The|winds _ all kiss _ the|hills, _ _ _ The|sun- * beams kiss the|tu- * lip bud, For the|
w: 2.The|moon- * beams kiss the|clouds _ at nicht, The|star- * gems kiss _ the|sea, _ _ _ While|shad- * ows dream- y,|soft _ and light, Are _|
w: 3.The|winds, _ the waves, the|bud- * ding flow'rs, The|laugh- * ing, mer- * ry|rills, _ _ _ Are|kis- * sing all from|morn _ to eve, And _|
 (d>e) d (cA) d | G3- G z G | (GB) d (fe) d | (cd) e G2 G | A2 A (cB) A | (e3 f) z G | %13
w: o- * dor it _ dis-|tills. _ The|dew- * drops kiss _ the|rose _ at morn, The|ce- reus, dew _ at|eve; _ And|
w: kis- * sing on _ the|lea. _ The|zeph- * yrs kiss _ the|bud- * ding pink, That|blooms on beau- * ty's|lip; _ And|
w: clouds _ still kiss _ ths|hills. _ E'en|heav'n _ and earth _ do|meet _ to kiss, Thro'|tears of spark- * ling|dew; _ In|
 (Gc) d e2 e | g2 f A2 d | G2 c d2 ^d | e3 z2 G | (Gc) d e2 e | g2 f A2 d | G2 c (BA) B | %20
w: fern _ and flow'r in|cir- cling clasp, Their|mys- tic beau- ties|weave, And|fern _ and flow'r in|cir- cling clasp, Their|mys- tic beau- * ties|
w: rud- * der blasts, tho'|cold and chill, Its|ru- by nec- tar|sip, And|rud- * der blasts, tho'|cold and chill, Its|ru- by nec- * tar|
w: kiss- * ing, then, can|there be harm? I|don't think so, do|you? In|kiss- * ing, then, can|there be harm? I|don't think so, _ do|
 c3- c2 z |] %21
w: weave. _|
w: sip. _|
w: you? _|
V:2
 E | E2 G G2 E | E2 G G2 G | F2 E (FA) G | (E2 G/F/ E) z E | E2 G G2 E | E2 G G2 G/-G/ | %7
w: 1.The|wa- ters kiss the|peb- bly shore; The|winds all kiss _ the|hills, _ _ _ The|sun- beams kiss the|tu- lip bud, For the|
w: 2.The|moon- beams kiss the|clouds at nicht, The|star- gems kiss _ the|sea, _ _ _ While|shad- ows dream- y,|soft and light, Are _|
w: 3.The|winds, the waves, the|bud- ding flow'rs, The|laugh- ing, mer- * ry|rills, _ _ _ Are|kis- sing all from|morn to eve, And _|
 G2 G ^F2 F | (D2 E D) z F | (DF) F G2 F | (EF) G E2 E | F2 F ^D2 D | (E^F^G=G) z =F | E2 F G2 G | %14
w: o- dor it dis-|tills. _ _ The|dew- * drops kiss the|rose _ at morn, The|ce- reus, dew at|eve; _ _ _ And|fern and flow'r in|
w: kis- sing on the|lea. _ _ The|zeph- * yrs kiss the|bud- * ding pink, That|blooms on beau- ty's|lip; _ _ _ And|rud- der blasts, tho'|
w: clouds still kiss ths|hills. _ _ E'en|heav'n _ and earth do|meet _ to kiss, Thro'|tears of spark- ling|dew; _ _ _ In|kiss- ing, then, can|
 _B2 A F2 F | E2 E F2 F | (E2 F G2) E | E2 F G2 G | _B2 A F2 F | E2 E F2 F | E3- E2 z |] %21
w: cir- cling clasp, Their|mys- tic beau- ties|weave, _ _ And|fern and flow'r in|cir- cling clasp, Their|mys- tic beau- ties|weave. _|
w: cold and chill, Its|ru- by nec- tar|sip, _ _ And|rud- der blasts, tho'|cold and chill, Its|ru- by nec- tar|sip. _|
w: there be harm? I|don't think so, do|you? _ _ In|kiss- ing, then, can|there be harm? I|don't think so, do|you? _|
V:3
 c | c2 B c2 c | c2 B c2 c | B2 ^A B2 B | ((c3 c)) z c | c2 B c2 d | c2 B c2 c/-c/ | B2 B (Ac) c | %8
w: 1.The|wa- ters kiss the|peb- bly shore; The|winds all kiss the|hills, _ The|sun- beams kiss the|tu- lip bud, For the|o- dor it _ dis-|
w: 2.The|moon- beams kiss the|clouds at nicht, The|star- gems kiss the|sea, _ While|shad- ows dream- y,|soft and light, Are _|kis- sing on _ the|
w: 3.The|winds, the waves, the|bud- ding flow'rs, The|laugh- ing, mer- ry|rills, _ Are|kis- sing all from|morn to eve, And _|clouds still kiss _ ths|
 (B2 c B) z B | (((BG))) G (Bc) G | G2 c c2 c | c2 c (AB) B | (^GA B2) z B | G2 B c2 _B | %14
w: tills. _ _ The|dew- * drops kiss _ the|rose at morn, The|ce- reus, dew _ at|eve; _ _ And|fern and flow'r in|
w: lea. _ _ The|zeph- * yrs kiss _ the|bud- ding pink, That|blooms on beau- * ty's|lip; _ _ And|rud- der blasts, tho'|
w: hills. _ _ E'en|heav'n _ and earth _ do|meet to kiss, Thro'|tears of spark- * ling|dew; _ _ In|kiss- ing, then, can|
 ^c2 d d2 A | =c2 c B2 B | (c2 d e2) c | c2 B c2 _B | ^c2 d d2 A | =c2 c d2 d | c3- c2 z |] %21
w: cir- cling clasp, Their|mys- tic beau- ties|weave, _ _ And|fern and flow'r in|cir- cling clasp, Their|mys- tic beau- ties|weave. _|
w: cold and chill, Its|ru- by nec- tar|sip, _ _ And|rud- der blasts, tho'|cold and chill, Its|ru- by nec- tar|sip. _|
w: there be harm? I|don't think so, do|you? _ _ In|kiss- ing, then, can|there be harm? I|don't think so, do|you? _|
V:4
 C, | C,2 C, C,2 C, | C,2 C, C,2 C, | G,2 G, G,2 G, | ((C,3 C,)) z C, | C,2 C, C,2 C, | %6
w: 1.The|wa- ters kiss the|peb- bly shore; The|winds all kiss the|hills, _ The|sun- beams kiss the|
w: 2.The|moon- beams kiss the|clouds at nicht, The|star- gems kiss the|sea, _ While|shad- ows dream- y,|
w: 3.The|winds, the waves, the|bud- ding flow'rs, The|laugh- ing, mer- ry|rills, _ Are|kis- sing all from|
 C,2 C, C,2 C,/-C,/ | D,2 D, D,2 D, | (G,3 G,) z G, | ((F,D,)) B,, (G,,A,,) B,, | C,2 C, C,2 C, | %11
w: tu- lip bud, For the|o- dor it dis-|tills. _ The|dew- * drops kiss _ the|rose at morn, The|
w: soft and light, Are _|kis- sing on the|lea. _ The|zeph- * yrs kiss _ the|bud- ding pink, That|
w: morn to eve, And _|clouds still kiss ths|hills. _ E'en|heav'n _ and earth _ do|meet to kiss, Thro'|
 F,2 F, F,2 F, | ((E,3 D,)) z G, | C,2 C, C,2 C, | F,2 F, D,2 F, | G,2 G, G,2 G, | C,3 z2 C, | %17
w: ce- reus, dew at|eve; _ And|fern and flow'r in|cir- cling clasp, Their|mys- tic beau- ties|weave, And|
w: blooms on beau- ty's|lip; _ And|rud- der blasts, tho'|cold and chill, Its|ru- by nec- tar|sip, And|
w: tears of spark- ling|dew; _ In|kiss- ing, then, can|there be harm? I|don't think so, do|you? In|
 C,2 C, C,2 C, | F,2 F, D,2 F, | G,2 G, G,2 G, | C,3- C,2 z |] %21
w: fern and flow'r in|cir- cling clasp, Their|mys- tic beau- ties|weave. _|
w: rud- der blasts, tho'|cold and chill, Its|ru- by nec- tar|sip. _|
w: kiss- ing, then, can|there be harm? I|don't think so, do|you? _|

